dist/assets/img/svg/icon-slider-arrow-left.svg

<svg width="11" height="19" viewBox="0 0 11 19" xmlns="http://www.w3.org/2000/svg">
<g id="back" clip-path="url(#clip0_45_2888)">
<path id="Vector" d="M8.82028 18.624L0.278817 10.2018C0.177435 10.1016 0.105453 9.99296 0.0628727 9.87599C0.0202921 9.75902 -0.000660041 9.63369 1.58411e-05 9.5C1.58411e-05 9.36631 0.020968 9.24098 0.0628727 9.12401C0.104777 9.00704 0.176759 8.89842 0.278817 8.79815L8.82028 0.350923C9.05684 0.116974 9.35254 0 9.70738 0C10.0622 0 10.3664 0.12533 10.6198 0.375989C10.8733 0.626649 11 0.919085 11 1.2533C11 1.58751 10.8733 1.87995 10.6198 2.13061L3.16821 9.5L10.6198 16.8694C10.8564 17.1033 10.9747 17.3918 10.9747 17.7347C10.9747 18.0776 10.8479 18.374 10.5945 18.624C10.341 18.8747 10.0453 19 9.70738 19C9.36943 19 9.07374 18.8747 8.82028 18.624Z"/>
</g>
<defs>
<clipPath id="clip0_45_2888">
<rect width="11" height="19" fill="white"/>
</clipPath>
</defs>
</svg>

<svg width="11" height="19" xmlns="http://www.w3.org/2000/svg"><g clip-path="url(#clip0_45_2888)"><path d="M8.82 18.624L.28 10.202a.884.884 0 01-.216-.326A1.075 1.075 0 010 9.5c0-.134.021-.259.063-.376a.868.868 0 01.216-.326L8.82.351A1.21 1.21 0 019.707 0c.355 0 .66.125.913.376.253.25.38.543.38.877 0 .335-.127.627-.38.878L3.168 9.5l7.452 7.37c.236.233.355.522.355.865 0 .343-.127.639-.38.889-.254.25-.55.376-.888.376-.338 0-.633-.125-.887-.376z"/></g><defs><clipPath id="clip0_45_2888"><path fill="#fff" d="M0 0h11v19H0z"/></clipPath></defs></svg>33 1.87995 10.6198 2.13061L3.16821 9.5L10.6198 16.8694C10.8564 17.1033 10.9747 17.3918 10.9747 17.7347C10.9747 18.0776 10.8479 18.374 10.5945 18.624C10.341 18.8747 10.0453 19 9.70738 19C9.36943 19 9.07374 18.8747 8.82028 18.624Z"/>
</g>
<defs>
<clipPath id="clip0_45_2888">
<rect width="11" height="19" fill="white"/>
</clipPath>
</defs>
</svg>
